X: 1
T:The Fuddler
M:6/8
L:1/8
Q:80
C:Composed by W. Garrett
S:Jig
K:HP
|: {g}Be{A}e{g}ege|
{g}faf{a}gfe|
{g}Be{A}e{g}ege|  !
{g}dfd{g}dB{G}B|
{g}Be{A}e{g}ege|
{g}faf{a}gfe|  !
{g}Be{A}e{g}eg{f}g|
{a}fd{G}d{g}e3:| |:
{g}Bg{a}f{g}e2B|  !
{g}Bg{f}g{a}fed|
{g}dfd{g}AdB|
{g}dfd{a}gfe|  !
{g}Bg{a}f{g}e2B|
{g}Bg{f}g{a}fed|
{g}dfd{g}AdB|  !
{g}dfd{g}e3:|
